X: 1
T:Take The High Road (from UK Tv Series)  "CYMRU"
M:C
L:1/8
Q:80
C:March
S:
K:HP
M:C| |
{gcd}c3B|
{G}A2c2|  !
e3{g}f|
{gef}e4|
a3g|  !
{afg}f2a2|
e2{Gdc}dc|
{gBd}B4| |  !
{gcd}c3B|
{G}A2c2|
e3{g}f|  !
{gef}e4|
{Gdc}d{gcd}c3|
B3{gcd}c|  !
{gef}e4|
-e4| |
{gcd}c2B|  !
{G}A2c2|
e2{g}f|
{gef}e4|  !
a3g|
{afg}f2a2|
e2{Gdc}dc|
{gBd}B4| |  !
{gcd}c3B|
{G}A2c2|
e3{g}f|  !
{gef}e4|
{Gdc}d{gcd}c3|
B3{gcd}c|  !
{G}A4|
-A2|]
